1-js/06-advanced-functions/09-call-apply-decorators/03-debounce/debounce.svg

<?xml version="1.0" encoding="UTF-8"?>
<svg width="500px" height="183px" viewBox="0 0 500 183" version="1.1" xmlns="http://www.w3.org/2000/svg" xmlns:xlink="http://www.w3.org/1999/xlink">
    <!-- Generator: sketchtool 61.2 (101010) - https://sketch.com -->
    <title>debounce.svg</title>
    <desc>Created with sketchtool.</desc>
    <g id="combined" stroke="none" stroke-width="1" fill="none" fill-rule="evenodd">
        <g id="debounce.svg">
            <text id="200ms" font-family="PTMono-Regular, PT Mono" font-size="14" font-weight="normal" fill="#8A704D">
                <tspan x="117" y="142">200ms</tspan>
            </text>
            <text id="1500ms" font-family="PTMono-Regular, PT Mono" font-size="14" font-weight="normal" fill="#8A704D">
                <tspan x="321" y="142">1500ms</tspan>
            </text>
            <text id="1000ms" font-family="PTMono-Regular, PT Mono" font-size="14" font-weight="normal" fill="#8A704D">
                <tspan x="242" y="80">1000ms</tspan>
            </text>
            <path d="M343.378251,28.3208852 L350.919622,12 L331,33.0235131 L340.673759,35.95574 L334.79669,52 L353,31.253112 L343.378251,28.3208852 Z M347.747045,16.7026279 L342.078014,28.9294606 L351.283688,31.6957123 L337.397163,47.6846473 L341.921986,35.3471646 L332.716312,32.5809129 L347.747045,16.7026279 Z" id="Shape" stroke="#EE6B47" stroke-width="3" fill="#EE6B47" stroke-linecap="square"></path>
            <text id="0" font-family="PTMono-Regular, PT Mono" font-size="14" font-weight="normal" fill="#8A704D">
                <tspan x="93" y="142">0</tspan>
            </text>
            <text id="c" font-family="PTMono-Regular, PT Mono" font-size="14" font-weight="normal" fill="#EE6B47">
                <tspan x="333" y="72">c</tspan>
            </text>
            <text id="f(a)" font-family="PTMono-Regular, PT Mono" font-size="14" font-weight="normal" fill="#EE6B47">
                <tspan x="81" y="164">f(a)</tspan>
            </text>
            <text id="f(b)" font-family="PTMono-Regular, PT Mono" font-size="14" font-weight="normal" fill="#EE6B47">
                <tspan x="121" y="164">f(b)</tspan>
            </text>
            <text id="f(c)" font-family="PTMono-Regular, PT Mono" font-size="14" font-weight="normal" fill="#EE6B47">
                <tspan x="181" y="164">f(c)</tspan>
            </text>
            <text id="500ms" font-family="PTMono-Regular, PT Mono" font-size="14" font-weight="normal" fill="#8A704D">
                <tspan x="177" y="142">500ms</tspan>
            </text>
            <text id="time" font-family="PTMono-Regular, PT Mono" font-size="14" font-weight="normal" fill="#8A704D">
                <tspan x="427" y="125">time</tspan>
            </text>
            <text id="calls:" font-family="PTMono-Regular, PT Mono" font-size="14" font-weight="normal" fill="#8A704D">
                <tspan x="7" y="164">calls:</tspan>
            </text>
            <path id="Line" d="M432.368686,94.3881632 L433.240261,94.8784245 L445.240261,101.628424 L446.789729,102.5 L445.240261,103.371576 L433.240261,110.121576 L432.368686,110.611837 L431.388163,108.868686 L432.259739,108.378424 L440.932,103.5 L48,103.5 L48,101.5 L440.932,101.5 L432.259739,96.6215755 L431.388163,96.1313143 L432.368686,94.3881632 Z" fill="#BCA68E" fill-rule="nonzero"></path>
            <text id="after-1000ms" font-family="PTMono-Regular, PT Mono" font-size="14" font-weight="normal" fill="#8A704D">
                <tspan x="358" y="36"> after 1000ms</tspan>
            </text>
            <line x1="137.5" y1="125" x2="137.5" y2="80" id="Line-Copy" stroke="#BCA68E" stroke-width="2" stroke-linecap="square"></line>
            <line x1="97.5" y1="125" x2="97.5" y2="80" id="Line-Copy" stroke="#BCA68E" stroke-width="2" stroke-linecap="square"></line>
            <line x1="197.5" y1="125" x2="197.5" y2="80" id="Line-Copy" stroke="#BCA68E" stroke-width="2" stroke-linecap="square"></line>
            <line x1="337.5" y1="125" x2="337.5" y2="80" id="Line-2" stroke="#EE6B47" stroke-width="3" stroke-linecap="square"></line>
            <path id="Line-25" d="M212.631314,77.8881632 L213.611837,79.6313143 L212.740261,80.1215755 L204.067,85 L206,85 L206,87 L204.067,87 L212.740261,91.8784245 L213.611837,92.3686857 L212.631314,94.1118368 L211.759739,93.6215755 L199.759739,86.8715755 L198.210271,86 L199.759739,85.1284245 L211.759739,78.3784245 L212.631314,77.8881632 Z M321.368686,77.8881632 L322.240261,78.3784245 L334.240261,85.1284245 L335.789729,86 L334.240261,86.8715755 L322.240261,93.6215755 L321.368686,94.1118368 L320.388163,92.3686857 L321.259739,91.8784245 L329.931,87 L329,87 L329,85 L329.934,85 L321.259739,80.1215755 L320.388163,79.6313143 L321.368686,77.8881632 Z M214,85 L214,87 L209,87 L209,85 L214,85 Z M222,85 L222,87 L217,87 L217,85 L222,85 Z M230,85 L230,87 L225,87 L225,85 L230,85 Z M238,85 L238,87 L233,87 L233,85 L238,85 Z M246,85 L246,87 L241,87 L241,85 L246,85 Z M254,85 L254,87 L249,87 L249,85 L254,85 Z M262,85 L262,87 L257,87 L257,85 L262,85 Z M270,85 L270,87 L265,87 L265,85 L270,85 Z M278,85 L278,87 L273,87 L273,85 L278,85 Z M286,85 L286,87 L281,87 L281,85 L286,85 Z M294,85 L294,87 L289,87 L289,85 L294,85 Z M302,85 L302,87 L297,87 L297,85 L302,85 Z M310,85 L310,87 L305,87 L305,85 L310,85 Z M318,85 L318,87 L313,87 L313,85 L318,85 Z M326,85 L326,87 L321,87 L321,85 L326,85 Z" fill="#BCA68E" fill-rule="nonzero"></path>
        </g>
    </g>
</svg>

<svg xmlns="http://www.w3.org/2000/svg" width="500" height="183" viewBox="0 0 500 183"><defs><style>@import url(https://fonts.googleapis.com/css?family=Open+Sans:bold,italic,bolditalic%7CPT+Mono);@font-face{font-family:&apos;PT Mono&apos;;font-weight:700;font-style:normal;src:local(&apos;PT MonoBold&apos;),url(/font/PTMonoBold.woff2) format(&apos;woff2&apos;),url(/font/PTMonoBold.woff) format(&apos;woff&apos;),url(/font/PTMonoBold.ttf) format(&apos;truetype&apos;)}</style></defs><g id="combined" fill="none" fill-rule="evenodd" stroke="none" stroke-width="1"><g id="debounce.svg"><text id="200ms" fill="#8A704D" font-family="PTMono-Regular, PT Mono" font-size="14" font-weight="normal"><tspan x="117" y="142">200ms</tspan></text><text id="1500ms" fill="#8A704D" font-family="PTMono-Regular, PT Mono" font-size="14" font-weight="normal"><tspan x="321" y="142">1500ms</tspan></text><text id="1000ms" fill="#8A704D" font-family="PTMono-Regular, PT Mono" font-size="14" font-weight="normal"><tspan x="242" y="80">1000ms</tspan></text><path id="Shape" fill="#EE6B47" stroke="#EE6B47" stroke-linecap="square" stroke-width="3" d="M343.378 28.32L350.92 12 331 33.024l9.674 2.932L334.797 52 353 31.253l-9.622-2.932zm4.369-11.617l-5.669 12.226 9.206 2.767-13.887 15.989 4.525-12.338-9.206-2.766 15.031-15.878z"/><text id="0" fill="#8A704D" font-family="PTMono-Regular, PT Mono" font-size="14" font-weight="normal"><tspan x="93" y="142">0</tspan></text><text id="c" fill="#EE6B47" font-family="PTMono-Regular, PT Mono" font-size="14" font-weight="normal"><tspan x="333" y="72">c</tspan></text><text id="f(a)" fill="#EE6B47" font-family="PTMono-Regular, PT Mono" font-size="14" font-weight="normal"><tspan x="81" y="164">f(a)</tspan></text><text id="f(b)" fill="#EE6B47" font-family="PTMono-Regular, PT Mono" font-size="14" font-weight="normal"><tspan x="121" y="164">f(b)</tspan></text><text id="f(c)" fill="#EE6B47" font-family="PTMono-Regular, PT Mono" font-size="14" font-weight="normal"><tspan x="181" y="164">f(c)</tspan></text><text id="500ms" fill="#8A704D" font-family="PTMono-Regular, PT Mono" font-size="14" font-weight="normal"><tspan x="177" y="142">500ms</tspan></text><text id="time" fill="#8A704D" font-family="PTMono-Regular, PT Mono" font-size="14" font-weight="normal"><tspan x="427" y="125">time</tspan></text><text id="calls:" fill="#8A704D" font-family="PTMono-Regular, PT Mono" font-size="14" font-weight="normal"><tspan x="7" y="164">calls:</tspan></text><path id="Line" fill="#BCA68E" fill-rule="nonzero" d="M432.369 94.388l.871.49 12 6.75 1.55.872-1.55.872-12 6.75-.871.49-.98-1.743.87-.49 8.673-4.879H48v-2h392.932l-8.672-4.878-.872-.49.98-1.744z"/><text id="after-1000ms" fill="#8A704D" font-family="PTMono-Regular, PT Mono" font-size="14" font-weight="normal"><tspan x="358" y="36"> after 1000ms</tspan></text><path id="Line-Copy" stroke="#BCA68E" stroke-linecap="square" stroke-width="2" d="M137.5 125V80M97.5 125V80M197.5 125V80"/><path id="Line-2" stroke="#EE6B47" stroke-linecap="square" stroke-width="3" d="M337.5 125V80"/><path id="Line-25" fill="#BCA68E" fill-rule="nonzero" d="M212.631 77.888l.98 1.743-.87.49L204.066 85H206v2h-1.933l8.673 4.878.872.49-.98 1.744-.872-.49-12-6.75-1.55-.872 1.55-.872 12-6.75.871-.49zm108.738 0l.871.49 12 6.75 1.55.872-1.55.872-12 6.75-.871.49-.98-1.743.87-.49L329.932 87H329v-2h.934l-8.674-4.878-.872-.49.98-1.744zM214 85v2h-5v-2h5zm8 0v2h-5v-2h5zm8 0v2h-5v-2h5zm8 0v2h-5v-2h5zm8 0v2h-5v-2h5zm8 0v2h-5v-2h5zm8 0v2h-5v-2h5zm8 0v2h-5v-2h5zm8 0v2h-5v-2h5zm8 0v2h-5v-2h5zm8 0v2h-5v-2h5zm8 0v2h-5v-2h5zm8 0v2h-5v-2h5zm8 0v2h-5v-2h5zm8 0v2h-5v-2h5z"/></g></g></svg>
